X:7503
T:Gypsies Hornpipe
R:Hornpipe
C:Trad.
O:England
Z:Paul Hardy's Annex Tunebook 2015 (see www.paulhardy.net). Creative Commons cc by-nc-sa licenced.
M:4/4
L:1/8
Q:1/4=160
K:G
ef|"Em"gf ed ed Bd|"C"ed (3efg "G"B2 BA|GF GA BA Bd|"Am"e2A2 A2ef|
"Em"gf ed ed Bd|"C"ed (3efg "G"B2 "D7"BA|"G"GF GA "B7"Bc BA|"Em"G2 E2 E2:|
|:gf|"Em"e2B2 B2 gf|(3efe B2B2 gf|ed ef "C"gf ga|"Em"b2e2 e2 ga|
"G"bg "D"af "Em"g2gf|"C"ed (3efg "G"B2 "D7"BA|"G"GF GA "B7"Bc BA|"Em"G2 E2 E2:|

